azure-docs/api_face.svg

<?xml version="1.0" encoding="UTF-8"?>
<svg width="512px" height="512px" viewBox="0 0 512 512" version="1.1" xmlns="http://www.w3.org/2000/svg" xmlns:xlink="http://www.w3.org/1999/xlink">
    <!-- Generator: Sketch 46.2 (44496) - http://www.bohemiancoding.com/sketch -->
    <title>Face-wht-bluBG-512p</title>
    <desc>Created with Sketch.</desc>
    <defs></defs>
    <g id="PRODUCTION-ICONS" stroke="none" stroke-width="1" fill="none" fill-rule="evenodd">
        <g id="Face-wht-bluBG-512p">
            <g id="Face-API">
                <rect id="Rectangle-3-Copy-3" fill="#0063B1" x="0" y="0" width="512" height="512"></rect>
                <path d="M102.4,409.6 L102.4,102.4 L409.6,102.4 L409.6,409.6 L102.4,409.6 Z M386.844444,386.844444 L386.844444,125.155556 L125.155556,125.155556 L125.155556,386.844444 L386.844444,386.844444 Z" id="Fill-3-Copy-3" fill="#FFFFFF" fill-rule="nonzero"></path>
                <path d="M182.044444,294.931255 C197.441298,318.808914 225.358355,333.687073 255.999187,333.687073 C286.641389,333.687073 314.558577,318.809109 329.955556,294.931255 L315.343233,285.508899 C303.181588,304.369351 280.794262,316.300275 255.999187,316.300275 C231.205528,316.300275 208.818313,304.369198 196.656767,285.508899 L182.044444,294.931255 Z" id="Page-1-Copy" fill="#FFFFFF" fill-rule="nonzero"></path>
                <polygon id="Rectangle-2" fill="#FFFFFF" fill-rule="nonzero" points="182.044444 187.733333 221.866667 187.733333 221.866667 227.555556 182.044444 227.555556"></polygon>
                <polygon id="Rectangle-2-Copy" fill="#FFFFFF" fill-rule="nonzero" points="290.133333 187.733333 329.955556 187.733333 329.955556 227.555556 290.133333 227.555556"></polygon>
            </g>
        </g>
    </g>
</svg>

<svg width="512" height="512" xmlns="http://www.w3.org/2000/svg"><g fill="none" fill-rule="evenodd"><path fill="#0063B1" d="M0 0h512v512H0z"/><path d="M102.4 409.6V102.4h307.2v307.2H102.4zm284.444-22.756V125.156H125.156v261.688h261.688z" fill="#FFF" fill-rule="nonzero"/><path d="M182.044 294.931c15.397 23.878 43.314 38.756 73.955 38.756 30.642 0 58.56-14.878 73.957-38.756l-14.613-9.422C303.182 304.369 280.794 316.3 256 316.3c-24.793 0-47.18-11.93-59.342-30.791l-14.613 9.422zM182.044 187.733h39.823v39.823h-39.823zM290.133 187.733h39.823v39.823h-39.823z" fill="#FFF" fill-rule="nonzero"/></g></svg>
